Numix-GalliumOS/24/actions/stock_mail-unread-multiple.svg

<?xml version="1.0" encoding="UTF-8" standalone="no"?>
<svg
   xmlns:dc="http://purl.org/dc/elements/1.1/"
   xmlns:cc="http://creativecommons.org/ns#"
   xmlns:rdf="http://www.w3.org/1999/02/22-rdf-syntax-ns#"
   xmlns:svg="http://www.w3.org/2000/svg"
   xmlns="http://www.w3.org/2000/svg"
   xmlns:sodipodi="http://sodipodi.sourceforge.net/DTD/sodipodi-0.dtd"
   xmlns:inkscape="http://www.inkscape.org/namespaces/inkscape"
   width="24"
   height="24"
   viewBox="0 0 24 24"
   id="svg2"
   version="1.1"
   inkscape:version="0.91 r"
   sodipodi:docname="stock_mail-unread-multiple.svg">
  <metadata
     id="metadata22">
    <rdf:RDF>
      <cc:Work
         rdf:about="">
        <dc:format>image/svg+xml</dc:format>
        <dc:type
           rdf:resource="http://purl.org/dc/dcmitype/StillImage" />
        <dc:title />
      </cc:Work>
    </rdf:RDF>
  </metadata>
  <defs
     id="defs20" />
  <sodipodi:namedview
     pagecolor="#ffffff"
     bordercolor="#666666"
     borderopacity="1"
     objecttolerance="10"
     gridtolerance="10"
     guidetolerance="10"
     inkscape:pageopacity="0"
     inkscape:pageshadow="2"
     inkscape:window-width="1920"
     inkscape:window-height="1056"
     id="namedview18"
     showgrid="false"
     inkscape:zoom="10.727273"
     inkscape:cx="-14.495762"
     inkscape:cy="11"
     inkscape:window-x="0"
     inkscape:window-y="24"
     inkscape:window-maximized="1"
     inkscape:current-layer="svg2" />
  <g
     style="fill:#268bd2"
     id="g4-9-6"
     transform="matrix(0.81818182,0,0,0.81249997,0.99999998,-3.874999)">
    <path
       d="M 2,6 C -7.2055846e-4,6 0,6 0,8 l 0,12 c 0,2 0,2 2,2 l 18,0 c 2,0 2,0 2,-2 0,-4.425781 0,-9.441406 0,-12 0,-2 0,-2 -2,-2 z"
       id="path6-4-2"
       inkscape:connector-curvature="0" />
    <path
       d="m 2,22 18,0 c 2,0 2,0 2,-2 L 22,8 0,20 c 0,2 0,2 2,2 z"
       id="path8-4-8"
       inkscape:connector-curvature="0" />
  </g>
  <path
     style="fill-opacity:0.1"
     d="m 2.636364,14 14.727273,0 C 19,14 19,14 19,12.375001 l 0,-9.75 -18.00000002,9.75 C 0.99999998,14 0.99999998,14 2.636364,14 Z"
     id="path10-9-5"
     inkscape:connector-curvature="0" />
  <path
     style="fill:#268bd2"
     d="M 17.363637,14 2.636364,14 C 0.99999998,14 0.99999998,14 0.99999998,12.375001 l 0,-9.75 L 19,12.375001 C 19,14 19,14 17.363637,14 Z"
     id="path12-2-2"
     inkscape:connector-curvature="0" />
  <path
     style="fill:#ffffff;fill-opacity:0.10199998"
     d="M 0.99999998,2.625001 10,7.5 19,2.625001 C 19,0.99999998 19,0.99999998 17.363637,0.99999998 l -14.727273,0 c -1.63636402,0 -1.63636402,0 -1.63636402,1.62500102 z"
     id="path14-8-7"
     inkscape:connector-curvature="0" />
  <g
     style="fill:#268bd2"
     id="g4-9"
     transform="matrix(0.81818182,0,0,0.81249997,5,5.1250007)">
    <path
       d="M 2,6 C -7.2055846e-4,6 0,6 0,8 l 0,12 c 0,2 0,2 2,2 l 18,0 c 2,0 2,0 2,-2 0,-4.425781 0,-9.441406 0,-12 0,-2 0,-2 -2,-2 z"
       id="path6-4"
       inkscape:connector-curvature="0" />
    <path
       d="m 2,22 18,0 c 2,0 2,0 2,-2 L 22,8 0,20 c 0,2 0,2 2,2 z"
       id="path8-4"
       inkscape:connector-curvature="0" />
  </g>
  <path
     style="fill-opacity:0.1"
     d="M 6.6363637,23 21.363637,23 C 23,23 23,23 23,21.375001 l 0,-9.75 -18,9.75 C 5,23 5,23 6.6363637,23 Z"
     id="path10-9"
     inkscape:connector-curvature="0" />
  <path
     style="fill:#268bd2"
     d="M 21.363637,23 6.6363637,23 C 5,23 5,23 5,21.375001 l 0,-9.75 18,9.75 C 23,23 23,23 21.363637,23 Z"
     id="path12-2"
     inkscape:connector-curvature="0" />
  <path
     style="fill:#ffffff;fill-opacity:0.10199998"
     d="M 5,11.625001 14,16.5 23,11.625001 C 23,10 23,10 21.363637,10 L 6.6363637,10 C 5,10 5,10 5,11.625001 Z"
     id="path14-8"
     inkscape:connector-curvature="0" />
  <path
     style="fill:#cb4b16;fill-rule:evenodd"
     d="m 20.561515,7.4573279 c 1.027344,4.6145411 0.75,4.0422891 -3.078125,2.0982571 -4.015625,2.118549 -3.875,2.297123 -3.046875,-2.1429011 -3.613281,-3.1250627 -3.199219,-2.845024 1.1875,-3.4213348 1.976562,-4.13969342 1.808594,-3.84342032 3.789062,0.02841 4.628907,0.5357248 4.519532,0.353092 1.148438,3.4375688 z"
     id="path16"
     inkscape:connector-curvature="0" />
</svg>

<svg xmlns="http://www.w3.org/2000/svg" viewBox="0 0 24 24">
 <g transform="matrix(0.81818182,0,0,0.81249997,0.99999998,-3.874999)" style="fill:#268bd2">
  <path d="m 2 6 c -2 0 -2 0 -2 2 l 0 12 c 0 2 0 2 2 2 l 18 0 c 2 0 2 0 2 -2 0 -4.426 0 -9.441 0 -12 0 -2 0 -2 -2 -2 z"/>
  <path d="m 2,22 18,0 c 2,0 2,0 2,-2 L 22,8 0,20 c 0,2 0,2 2,2 z"/>
 </g>
 <path d="m 2.636 14 14.727 0 c 1.636 0 1.636 0 1.636 -1.625 l 0 -9.75 -18 9.75 c 0 1.625 0 1.625 1.636 1.625" style="fill-opacity:0.1"/>
 <path d="m 17.364 14 -14.727 0 c -1.636 0 -1.636 0 -1.636 -1.625 l 0 -9.75 l 18 9.75 c 0 1.625 0 1.625 -1.636 1.625" style="fill:#268bd2"/>
 <path d="m 1 2.625 9 4.875 9 -4.875 c 0 -1.625 0 -1.625 -1.636 -1.625 l -14.727 0 c -1.636 0 -1.636 0 -1.636 1.625 z" style="fill:#fff;fill-opacity:0.102"/>
 <g transform="matrix(0.81818182,0,0,0.81249997,5,5.1250007)" style="fill:#268bd2">
  <path d="m 2 6 c -2 0 -2 0 -2 2 l 0 12 c 0 2 0 2 2 2 l 18 0 c 2 0 2 0 2 -2 0 -4.426 0 -9.441 0 -12 0 -2 0 -2 -2 -2 z"/>
  <path d="m 2,22 18,0 c 2,0 2,0 2,-2 L 22,8 0,20 c 0,2 0,2 2,2 z"/>
 </g>
 <path d="m 6.636 23 14.727 0 c 1.636 0 1.636 0 1.636 -1.625 l 0 -9.75 -18 9.75 c 0 1.625 0 1.625 1.636 1.625" style="fill-opacity:0.1"/>
 <path d="M 21.363637,23 6.6363637,23 C 5,23 5,23 5,21.375001 l 0,-9.75 18,9.75 C 23,23 23,23 21.363637,23 Z" style="fill:#268bd2"/>
 <path d="M 5,11.625001 14,16.5 23,11.625001 C 23,10 23,10 21.363637,10 L 6.6363637,10 C 5,10 5,10 5,11.625001 Z" style="fill:#fff;fill-opacity:0.102"/>
 <path d="m 20.562 7.457 c 1.027 4.615 0.75 4.04 -3.078 2.098 -4.02 2.119 -3.875 2.297 -3.047 -2.143 -3.613 -3.125 -3.199 -2.845 1.188 -3.421 1.977 -4.14 1.809 -3.843 3.789 0.028 4.629 0.536 4.52 0.353 1.148 3.438 z" style="fill:#cb4b16;fill-rule:evenodd"/>
</svg>
